X: 1697
T: Tim the Turncoat
M:4/4
L:1/8
B:O'Neill's 1697
N:"collected by Dollard"
K:G
B>d \
| (3gfg b>ge2 d>c | B>cd>BG2G2 | DGBG DGBG | dcBcA2d2 |
| (3gfg b>g e2 d>c | B>cd>B G2G2 | FGAB cBce | dcAFG2 :|
|: B-c \
| dcde dBGB | c2BcAFD2 | G2Bc defg | agfe dcBc |
| dcde dBGB | c2BcAFD2 | G2Bc dgfg | ecAFG2 :|


